public/assets/formheimur/rolo.svg

<svg viewBox="0 0 375 271" fill="none" xmlns="http://www.w3.org/2000/svg" class="formheimur-rolo"><style>.formheimur-rolo {
		--litur1: var(--theme-color-primary, #dcddde);
		--litur2: var(--theme-color-secondary, #ebeced);
		--litur3: var(--theme-color-tertiary, #f3f4f5);
	}

	/* Frávik */
	[data-color-theme=&apos;dependable&apos;] .formheimur-rolo {
		--litur1: var(--theme-color-tertiary);
		--litur2: var(--theme-color-primary);
		--litur3: var(--theme-color-secondary);
	}
	[data-color-theme=&apos;friendly&apos;] .formheimur-rolo {
		--litur1: var(--theme-color-secondary);
		--litur2: var(--theme-color-tertiary);
		--litur3: var(--theme-color-primary);
	}
	[data-color-theme=&apos;colorful&apos;] .formheimur-rolo {
		--litur2: var(--theme-color-tertiary);
		--litur3: var(--theme-color-secondary);
	}</style><path d="M375 0H0V271H375V0Z" fill="var(--litur1)"/><path d="M64.7758 193.703H64.4392L104.54 94.9536L144.641 193.703H144.295L149.355 206.16H163.157L104.54 61.8163L45.9233 206.16H59.7161L64.7758 193.703Z" fill="var(--litur2)"/><path d="M59.4683 172.805H149.74L138.492 145.11H70.5778L59.4683 172.805Z" fill="var(--litur3)"/><path d="M118.848 97.0612H104.54H90.2227L104.54 61.8163L118.848 97.0612Z" fill="var(--litur3)"/><path d="M307.303 115.812H216.893L262.093 54.5635L307.303 115.812Z" fill="var(--litur3)"/><path d="M307.313 115.802H216.893V206.16H307.313V115.802Z" fill="var(--litur2)"/><path d="M288.778 134.325H235.428V187.637H288.778V134.325Z" fill="var(--litur1)"/><path d="M375 206.16H0V271H375V206.16Z" fill="var(--litur3)"/></svg>

<svg viewBox="0 0 375 271" fill="none" xmlns="http://www.w3.org/2000/svg" class="formheimur-rolo"><style>.formheimur-rolo{--litur1: var(--theme-color-primary, #dcddde);--litur2: var(--theme-color-secondary, #ebeced);--litur3: var(--theme-color-tertiary, #f3f4f5)}[data-color-theme=dependable] .formheimur-rolo{--litur1: var(--theme-color-tertiary);--litur2: var(--theme-color-primary);--litur3: var(--theme-color-secondary)}[data-color-theme=friendly] .formheimur-rolo{--litur1: var(--theme-color-secondary);--litur2: var(--theme-color-tertiary);--litur3: var(--theme-color-primary)}[data-color-theme=colorful] .formheimur-rolo{--litur2: var(--theme-color-tertiary);--litur3: var(--theme-color-secondary)}</style><path d="M375 0H0v271h375V0z" fill="var(--litur1)"/><path d="M64.776 193.703h-.337l40.101-98.75 40.101 98.75h-.346l5.06 12.457h13.802L104.54 61.816 45.923 206.16h13.793l5.06-12.457z" fill="var(--litur2)"/><path d="M59.468 172.805h90.272l-11.248-27.695H70.578l-11.11 27.695zm59.38-75.744H90.223l14.317-35.245 14.308 35.245zm188.455 18.751h-90.41l45.2-61.248 45.21 61.248z" fill="var(--litur3)"/><path d="M307.313 115.802h-90.42v90.358h90.42v-90.358z" fill="var(--litur2)"/><path d="M288.778 134.325h-53.35v53.312h53.35v-53.312z" fill="var(--litur1)"/><path d="M375 206.16H0V271h375v-64.84z" fill="var(--litur3)"/></svg>
